X: 1
T: Can duh Dilish
B: A COLECTION of the most Celebrated Irish Tunes16a
M: 6/4
L: 1/8
K: Dm
|:\
A4c2 d4e2 | f3gf2 Te4d2 | c2A2f2 Te4d2 | c2A2d2 D6 |
F3GF2 c2A2c2 | dcdefg Te4d2 | c2A2(GF) G3AG2 | F2D2D2 D6 :|
|:\
Tf4g2 a4b2 | Tg4f2 e2d2c2 | f2e2d2 g2f2e2 | a2g2f2 e2d2c2 | Tf4g2 a3bab |
g4f2 efedc2 | fgfefd gagfge | abagaf gfedc2 | a2(ba)(gf) g2(ag)(fe) |
f2(gf)(ed) e2(fe)(dc) | abagaf gagfge | fgfefd efedec | d2D2D2 D2E2F2 |
F2G2A2 A2B2c2 | c2C2C2 C2D2E2 | F2G2A2 A2B2c2 | d2D2E2 F3GA2 | A2G2A2 D6 :|
